src/categories-icons-sprite/categories/svg-cat-prod-grocery.svg

<svg width="29" height="40" viewBox="0 0 29 40" fill="none" xmlns="http://www.w3.org/2000/svg">
<path class="p-AB7B26" d="M16.7576 6.64472V4.29907C16.7576 1.93366 14.8374 0.889209 12.4739 0.880615L10.9102 6.64472H16.7576Z" fill="#4D98CB"/>
<path class="p-E1BB78" d="M12.4754 0C12.47 0 12.4649 0.880179 12.4596 0.880179C10.0888 0.880179 8.16016 1.92838 8.16016 4.29903V6.64468H12.4754V0Z" fill="#65B3E7"/>
<path class="p-CDBFBA" d="M23.337 25.0987L21.4245 23.7437L23.2158 21.2155L25.0071 18.6873C25.9929 17.2959 26.1139 15.5608 25.3307 14.0461C24.5476 12.5313 23.0619 11.627 21.3567 11.627H14.8047V9.2832H21.3567C23.9165 9.2832 26.2371 10.6957 27.4127 12.9696C28.5883 15.2436 28.3994 17.9536 26.9195 20.0423L23.337 25.0987Z" fill="#4D98CB"/>
<path class="p-DD7D00" d="M10.9102 23.5195L12.4739 39.9999H18.1155L18.3764 39.8588C22.1479 37.8194 24.5834 34.0143 24.8849 29.7834C22.9997 27.1118 16.1872 23.9278 10.9102 23.5195Z" fill="#58ADE5"/>
<path class="p-EEBF00" d="M12.4589 23.5181C7.17648 23.1151 2.69167 24.3487 0.0315628 28.0025C0.0109376 28.2975 0 28.5943 0 28.8929C0 33.4753 2.50627 37.6772 6.54077 39.8587L6.80163 39.9998H12.4748V23.5194C12.4695 23.519 12.4642 23.5185 12.4589 23.5181Z" fill="#76B7E2"/>
<path class="p-D6C4BE" d="M22.3638 21.3357C20.9291 19.458 18.9619 18.0112 16.7576 17.1975V6.64478H10.9102L12.4739 28.8866C13.6482 27.738 14.6471 25.3468 16.8148 25.3468C20.9457 25.3468 21.1604 29.6149 24.8849 29.7836C24.9059 29.4887 24.9171 29.1918 24.9171 28.8932C24.9172 26.1352 24.0343 23.5219 22.3638 21.3357Z" fill="#A1D1FD"/>
<path class="p-EFE2DD" d="M8.15922 6.64478V17.1975C5.95498 18.0112 3.9877 19.458 2.55307 21.3357C1.06353 23.2852 0.200783 25.5743 0.03125 28.0028C3.75613 28.1714 3.97066 31.5591 8.10157 31.5591C10.2907 31.5591 11.4469 29.9395 12.4745 28.8866V6.64478H8.15922Z" fill="#B9DFFC"/>
<path class="p-BDADA8" d="M19.1055 5.4729H12.4752L11.6934 6.64479L12.4752 6.9361H19.1055V5.4729Z" fill="#76B7E2"/>
<path class="p-DCCBC5" d="M12.4743 5.4729H5.8125V6.9361H12.4743V5.4729Z" fill="#A1D1FD"/>
</svg>

<svg width="29" height="40" fill="none" xmlns="http://www.w3.org/2000/svg"><path class="p-AB7B26" d="M16.758 6.645V4.299c0-2.365-1.92-3.41-4.284-3.418L10.91 6.645h5.848z" fill="#4D98CB"/><path class="p-E1BB78" d="M12.475 0c-.005 0-.01.88-.015.88-2.371 0-4.3 1.048-4.3 3.419v2.346h4.315V0z" fill="#65B3E7"/><path class="p-CDBFBA" d="M23.337 25.099l-1.913-1.355 1.792-2.529 1.791-2.528a4.401 4.401 0 00.324-4.64 4.401 4.401 0 00-3.974-2.42h-6.552V9.283h6.552c2.56 0 4.88 1.413 6.056 3.687a6.794 6.794 0 01-.494 7.072L23.337 25.1z" fill="#4D98CB"/><path class="p-DD7D00" d="M10.91 23.52L12.474 40h5.642l.26-.141a12.455 12.455 0 006.509-10.076C23 27.112 16.187 23.928 10.91 23.52z" fill="#58ADE5"/><path class="p-EEBF00" d="M12.459 23.518c-5.283-.403-9.767.83-12.427 4.485a12.455 12.455 0 006.51 11.856l.26.14h5.673V23.52h-.016z" fill="#76B7E2"/><path class="p-D6C4BE" d="M22.364 21.336a12.572 12.572 0 00-5.606-4.138V6.645H10.91l1.564 22.242c1.174-1.149 2.173-3.54 4.34-3.54 4.132 0 4.346 4.268 8.07 4.437a12.344 12.344 0 00-2.521-8.448z" fill="#A1D1FD"/><path class="p-EFE2DD" d="M8.16 6.645v10.553a12.572 12.572 0 00-5.607 4.138 12.325 12.325 0 00-2.522 6.667c3.725.168 3.94 3.556 8.07 3.556 2.19 0 3.346-1.62 4.373-2.672V6.645H8.16z" fill="#B9DFFC"/><path class="p-BDADA8" d="M19.105 5.473h-6.63l-.782 1.172.782.291h6.63V5.473z" fill="#76B7E2"/><path class="p-DCCBC5" d="M12.474 5.473H5.812v1.463h6.662V5.473z" fill="#A1D1FD"/></svg>
